public/sports/basketball.svg

<svg width="128" height="128" viewBox="0 0 128 128" fill="none" xmlns="http://www.w3.org/2000/svg">
<path d="M30.3686 32.6971L29.9994 32.2943L29.6308 32.6978C22.2887 40.7359 18.0102 51.102 17.5455 61.9787L17.5232 62.5H18.045H41.95H42.4708L42.4496 61.9797C42.0069 51.0985 37.7272 40.7251 30.3686 32.6971ZM65.5 62V62.5H66H82.045H82.5268L82.5447 62.0185C82.9792 50.3113 87.5838 39.1448 95.5275 30.534L95.866 30.1671L95.4997 29.8281C87.4405 22.3686 76.9929 18.0155 66.0214 17.5455L65.5 17.5231V18.045V62ZM62 62.5H62.5V62V18.045V17.5231L61.9786 17.5455C51.0071 18.0155 40.5596 22.3686 32.5004 29.8281L32.134 30.1671L32.4725 30.534C40.4163 39.1448 45.0208 50.3113 45.4554 62.0185L45.4732 62.5H45.955H62ZM42.4496 66.0203L42.4708 65.5H41.95H18.045H17.5232L17.5455 66.0213C18.0102 76.898 22.2887 87.2641 29.6308 95.3022L29.9994 95.7057L30.3686 95.3028C37.7272 87.2749 42.0069 76.9015 42.4496 66.0203ZM62.5 66V65.5H62H46.4739H45.955H45.95V65.9998L45.4554 65.9815C45.0208 77.6887 40.4163 88.8552 32.4725 97.466L32.134 97.8329L32.5004 98.1719C40.5596 105.631 51.0071 109.985 61.9786 110.455L62.5 110.477V109.955V66ZM66 65.5H65.5V66V109.955V110.477L66.0214 110.455C76.9929 109.985 87.4405 105.631 95.4997 98.1719L95.866 97.8329L95.5275 97.466C87.5838 88.8552 82.9792 77.6887 82.5447 65.9815L82.5268 65.5H82.045H66ZM86.05 65.5H85.5293L85.5504 66.0203C85.9931 76.9015 90.2728 87.2749 97.6314 95.3028L98.0007 95.7057L98.3692 95.3022C105.711 87.2641 109.99 76.898 110.455 66.0213L110.477 65.5H109.955H86.05ZM85.5504 61.9797L85.5293 62.5H86.05H109.955H110.477L110.455 61.9787C109.99 51.102 105.711 40.7359 98.3692 32.6978L98.0007 32.2943L97.6314 32.6971C90.2728 40.7251 85.9931 51.0985 85.5504 61.9797ZM36.4993 22.8423C44.6395 17.4032 54.2097 14.5001 63.9997 14.5C77.1236 14.5145 89.7058 19.7343 98.9857 29.0143C108.266 38.2943 113.486 50.8766 113.5 64.0005C113.5 73.7905 110.597 83.3606 105.158 91.5007C99.7186 99.641 91.9878 105.985 82.9428 109.732C73.8979 113.479 63.9451 114.459 54.3431 112.549C44.741 110.639 35.9209 105.924 28.9982 99.0018C22.0755 92.0791 17.3611 83.259 15.4512 73.657C13.5412 64.0549 14.5214 54.1021 18.268 45.0572C22.0145 36.0122 28.3591 28.2814 36.4993 22.8423Z" fill="#F0F3FF" stroke="black"/>
</svg>

<svg xmlns="http://www.w3.org/2000/svg" width="128" height="128" fill="none"><path fill="#F0F3FF" stroke="#000" d="m30.37 32.7-.37-.4-.37.4a46.35 46.35 0 0 0-12.08 29.28l-.03.52h24.95l-.02-.52A46.11 46.11 0 0 0 30.37 32.7ZM65.5 62v.5h17.03l.01-.48a49.12 49.12 0 0 1 12.99-31.49l.34-.36-.37-.34a46.31 46.31 0 0 0-29.48-12.28l-.52-.03V62Zm-3.5.5h.5V17.52l-.52.03A46.31 46.31 0 0 0 32.5 29.83l-.37.34.34.36a49.12 49.12 0 0 1 12.99 31.49l.01.48H62Zm-19.55 3.52.02-.52H17.52l.03.52A46.35 46.35 0 0 0 29.63 95.3l.37.4.37-.4a46.11 46.11 0 0 0 12.08-29.28ZM62.5 66v-.5H45.95v.5l-.5-.02a49.12 49.12 0 0 1-12.98 31.49l-.34.36.37.34a46.32 46.32 0 0 0 29.48 12.28l.52.03V66Zm3.5-.5h-.5V110.48l.52-.03A46.32 46.32 0 0 0 95.5 98.17l.37-.34-.34-.36a49.12 49.12 0 0 1-12.99-31.49l-.01-.48H66Zm20.05 0h-.52l.02.52A46.11 46.11 0 0 0 97.63 95.3l.37.4.37-.4a46.35 46.35 0 0 0 12.08-29.28l.03-.52H86.05Zm-.5-3.52-.02.52h24.95l-.03-.52A46.35 46.35 0 0 0 98.38 32.7l-.37-.4-.37.4a46.11 46.11 0 0 0-12.08 29.28ZM36.5 22.84a49.5 49.5 0 1 1 55 82.32 49.5 49.5 0 0 1-55-82.32Z"/></svg>
